src/img/range.svg

<svg width="467" height="11" viewBox="0 0 467 11" fill="none" xmlns="http://www.w3.org/2000/svg">
<path fill-rule="evenodd" clip-rule="evenodd" d="M0 10L0 0L1 0L1 10H0Z" fill="white" fill-opacity="0.9"/>
<path fill-rule="evenodd" clip-rule="evenodd" d="M93 10V0L94 0V10H93Z" fill="white"/>
<path fill-rule="evenodd" clip-rule="evenodd" d="M186 10V0L187 0V10H186Z" fill="white"/>
<path fill-rule="evenodd" clip-rule="evenodd" d="M279.182 10V0L280.182 0V10H279.182Z" fill="white"/>
<path fill-rule="evenodd" clip-rule="evenodd" d="M372.182 10V0L373.182 0V10H372.182Z" fill="white"/>
<path fill-rule="evenodd" clip-rule="evenodd" d="M465 10V0L466 0V10H465Z" fill="white"/>
<path fill-rule="evenodd" clip-rule="evenodd" d="M9.2998 9.32812V1.32812H10.2998V9.32812H9.2998Z" fill="white" fill-opacity="0.3"/>
<path fill-rule="evenodd" clip-rule="evenodd" d="M18.6045 9.32812V1.32812H19.6045V9.32812H18.6045Z" fill="white" fill-opacity="0.3"/>
<path fill-rule="evenodd" clip-rule="evenodd" d="M27.9258 9.32812V1.32812H28.9258V9.32812H27.9258Z" fill="white" fill-opacity="0.3"/>
<path fill-rule="evenodd" clip-rule="evenodd" d="M37.2305 9.32812V1.32812H38.2305V9.32812H37.2305Z" fill="white" fill-opacity="0.3"/>
<path fill-rule="evenodd" clip-rule="evenodd" d="M46.5 9.32812V1.32812H47.5V9.32812H46.5Z" fill="white" fill-opacity="0.6"/>
<path fill-rule="evenodd" clip-rule="evenodd" d="M55.8564 9.32227V1.32227H56.8564V9.32227H55.8564Z" fill="white" fill-opacity="0.3"/>
<path fill-rule="evenodd" clip-rule="evenodd" d="M65.1777 9.32812V1.32812H66.1777V9.32812H65.1777Z" fill="white" fill-opacity="0.3"/>
<path fill-rule="evenodd" clip-rule="evenodd" d="M74.4824 9.32812V1.32812H75.4824V9.32812H74.4824Z" fill="white" fill-opacity="0.3"/>
<path fill-rule="evenodd" clip-rule="evenodd" d="M83.8037 9.32812V1.32812H84.8037V9.32812H83.8037Z" fill="white" fill-opacity="0.3"/>
<path fill-rule="evenodd" clip-rule="evenodd" d="M93 10.3281V0.328125L94 0.328125V10.3281H93Z" fill="white" fill-opacity="0.9"/>
<path fill-rule="evenodd" clip-rule="evenodd" d="M186 10.3281V0.328125L187 0.328125V10.3281H186Z" fill="white"/>
<path fill-rule="evenodd" clip-rule="evenodd" d="M102.3 9.65625V1.65625H103.3V9.65625H102.3Z" fill="white" fill-opacity="0.3"/>
<path fill-rule="evenodd" clip-rule="evenodd" d="M111.604 9.65625V1.65625H112.604V9.65625H111.604Z" fill="white" fill-opacity="0.3"/>
<path fill-rule="evenodd" clip-rule="evenodd" d="M120.926 9.65625V1.65625H121.926V9.65625H120.926Z" fill="white" fill-opacity="0.3"/>
<path fill-rule="evenodd" clip-rule="evenodd" d="M130.23 9.65625V1.65625H131.23V9.65625H130.23Z" fill="white" fill-opacity="0.3"/>
<path fill-rule="evenodd" clip-rule="evenodd" d="M139.5 9.65625V1.65625H140.5V9.65625H139.5Z" fill="white" fill-opacity="0.6"/>
<path fill-rule="evenodd" clip-rule="evenodd" d="M148.856 9.65039V1.65039H149.856V9.65039H148.856Z" fill="white" fill-opacity="0.3"/>
<path fill-rule="evenodd" clip-rule="evenodd" d="M158.178 9.65625V1.65625H159.178V9.65625H158.178Z" fill="white" fill-opacity="0.3"/>
<path fill-rule="evenodd" clip-rule="evenodd" d="M167.482 9.65625V1.65625H168.482V9.65625H167.482Z" fill="white" fill-opacity="0.3"/>
<path fill-rule="evenodd" clip-rule="evenodd" d="M176.804 9.65625V1.65625H177.804V9.65625H176.804Z" fill="white" fill-opacity="0.3"/>
<path fill-rule="evenodd" clip-rule="evenodd" d="M279.182 10V0L280.182 0V10H279.182Z" fill="white" fill-opacity="0.9"/>
<path fill-rule="evenodd" clip-rule="evenodd" d="M372.182 10V0L373.182 0V10H372.182Z" fill="white"/>
<path fill-rule="evenodd" clip-rule="evenodd" d="M288.481 9.32812V1.32812H289.481V9.32812H288.481Z" fill="white" fill-opacity="0.3"/>
<path fill-rule="evenodd" clip-rule="evenodd" d="M297.786 9.32812V1.32812H298.786V9.32812H297.786Z" fill="white" fill-opacity="0.3"/>
<path fill-rule="evenodd" clip-rule="evenodd" d="M307.107 9.32812V1.32812H308.107V9.32812H307.107Z" fill="white" fill-opacity="0.3"/>
<path fill-rule="evenodd" clip-rule="evenodd" d="M316.412 9.32812V1.32812H317.412V9.32812H316.412Z" fill="white" fill-opacity="0.3"/>
<path fill-rule="evenodd" clip-rule="evenodd" d="M325.682 9.32812V1.32812H326.682V9.32812H325.682Z" fill="white" fill-opacity="0.6"/>
<path fill-rule="evenodd" clip-rule="evenodd" d="M335.038 9.32227V1.32227H336.038V9.32227H335.038Z" fill="white" fill-opacity="0.3"/>
<path fill-rule="evenodd" clip-rule="evenodd" d="M344.359 9.32812V1.32812H345.359V9.32812H344.359Z" fill="white" fill-opacity="0.3"/>
<path fill-rule="evenodd" clip-rule="evenodd" d="M353.664 9.32812V1.32812H354.664V9.32812H353.664Z" fill="white" fill-opacity="0.3"/>
<path fill-rule="evenodd" clip-rule="evenodd" d="M362.985 9.32812V1.32812H363.985V9.32812H362.985Z" fill="white" fill-opacity="0.3"/>
<path fill-rule="evenodd" clip-rule="evenodd" d="M372.363 10V0L373.363 0V10H372.363Z" fill="white"/>
<path fill-rule="evenodd" clip-rule="evenodd" d="M465.363 10V0L466.363 0V10H465.363Z" fill="white"/>
<path fill-rule="evenodd" clip-rule="evenodd" d="M372.363 10V0L373.363 0V10H372.363Z" fill="white" fill-opacity="0.9"/>
<path fill-rule="evenodd" clip-rule="evenodd" d="M465.363 10V0L466.363 0V10H465.363Z" fill="white" fill-opacity="0.9"/>
<path fill-rule="evenodd" clip-rule="evenodd" d="M381.663 9.32812V1.32812H382.663V9.32812H381.663Z" fill="white" fill-opacity="0.3"/>
<path fill-rule="evenodd" clip-rule="evenodd" d="M390.968 9.32812V1.32812H391.968V9.32812H390.968Z" fill="white" fill-opacity="0.3"/>
<path fill-rule="evenodd" clip-rule="evenodd" d="M400.289 9.32812V1.32812H401.289V9.32812H400.289Z" fill="white" fill-opacity="0.3"/>
<path fill-rule="evenodd" clip-rule="evenodd" d="M409.594 9.32812V1.32812H410.594V9.32812H409.594Z" fill="white" fill-opacity="0.3"/>
<path fill-rule="evenodd" clip-rule="evenodd" d="M418.863 9.32812V1.32812H419.863V9.32812H418.863Z" fill="white" fill-opacity="0.6"/>
<path fill-rule="evenodd" clip-rule="evenodd" d="M428.22 9.32227V1.32227H429.22V9.32227H428.22Z" fill="white" fill-opacity="0.3"/>
<path fill-rule="evenodd" clip-rule="evenodd" d="M437.541 9.32812V1.32812H438.541V9.32812H437.541Z" fill="white" fill-opacity="0.3"/>
<path fill-rule="evenodd" clip-rule="evenodd" d="M446.846 9.32812V1.32812H447.846V9.32812H446.846Z" fill="white" fill-opacity="0.3"/>
<path fill-rule="evenodd" clip-rule="evenodd" d="M456.167 9.32812V1.32812H457.167V9.32812H456.167Z" fill="white" fill-opacity="0.3"/>
<path fill-rule="evenodd" clip-rule="evenodd" d="M186.182 10.3281V0.328125L187.182 0.328125V10.3281H186.182Z" fill="white" fill-opacity="0.9"/>
<path fill-rule="evenodd" clip-rule="evenodd" d="M195.481 9.65625V1.65625H196.481V9.65625H195.481Z" fill="white" fill-opacity="0.3"/>
<path fill-rule="evenodd" clip-rule="evenodd" d="M204.786 9.65625V1.65625H205.786V9.65625H204.786Z" fill="white" fill-opacity="0.3"/>
<path fill-rule="evenodd" clip-rule="evenodd" d="M214.107 9.65625V1.65625H215.107V9.65625H214.107Z" fill="white" fill-opacity="0.3"/>
<path fill-rule="evenodd" clip-rule="evenodd" d="M223.412 9.65625V1.65625H224.412V9.65625H223.412Z" fill="white" fill-opacity="0.3"/>
<path fill-rule="evenodd" clip-rule="evenodd" d="M232.682 9.65625V1.65625H233.682V9.65625H232.682Z" fill="white" fill-opacity="0.6"/>
<path fill-rule="evenodd" clip-rule="evenodd" d="M242.038 9.65039V1.65039H243.038V9.65039H242.038Z" fill="white" fill-opacity="0.3"/>
<path fill-rule="evenodd" clip-rule="evenodd" d="M251.359 9.65625V1.65625H252.359V9.65625H251.359Z" fill="white" fill-opacity="0.3"/>
<path fill-rule="evenodd" clip-rule="evenodd" d="M260.664 9.65625V1.65625H261.664V9.65625H260.664Z" fill="white" fill-opacity="0.3"/>
<path fill-rule="evenodd" clip-rule="evenodd" d="M269.985 9.65625V1.65625H270.985V9.65625H269.985Z" fill="white" fill-opacity="0.3"/>
</svg>

<svg xmlns="http://www.w3.org/2000/svg" width="467" height="11" fill="none" xmlns:v="https://vecta.io/nano"><style><![CDATA[.B{fill-opacity:.3}.C{fill-opacity:.9}.D{fill-opacity:.6}]]></style><g fill-rule="evenodd" fill="#fff"><path d="M0 10V0h1v10H0z" class="C"/><path d="M93 10V0h1v10h-1zm93 0V0h1v10h-1zm93.182 0V0h1v10h-1zm93 0V0h1v10h-1zM465 10V0h1v10h-1z"/><path d="M9.3 9.328v-8h1v8h-1zm9.305 0v-8h1v8h-1zm9.321 0v-8h1v8h-1zm9.305 0v-8h1v8h-1z" class="B"/><path d="M46.5 9.328v-8h1v8h-1z" class="D"/><path d="M55.856 9.322v-8h1v8h-1zm9.322.006v-8h1v8h-1zm9.304 0v-8h1v8h-1zm9.322 0v-8h1v8h-1z" class="B"/><path d="M93 10.328v-10h1v10h-1z" class="C"/><path d="M186 10.328v-10h1v10h-1z"/><path d="M102.3 9.656v-8h1v8h-1zm9.304 0v-8h1v8h-1zm9.322 0v-8h1v8h-1zm9.304 0v-8h1v8h-1z" class="B"/><path d="M139.5 9.656v-8h1v8h-1z" class="D"/><path d="M148.856 9.65v-8h1v8h-1zm9.322.006v-8h1v8h-1zm9.304 0v-8h1v8h-1zm9.322 0v-8h1v8h-1z" class="B"/><path d="M279.182 10V0h1v10h-1z" class="C"/><path d="M372.182 10V0h1v10h-1z"/><path d="M288.481 9.328v-8h1v8h-1zm9.305 0v-8h1v8h-1zm9.321 0v-8h1v8h-1zm9.305 0v-8h1v8h-1z" class="B"/><path d="M325.682 9.328v-8h1v8h-1z" class="D"/><path d="M335.038 9.322v-8h1v8h-1zm9.321.006v-8h1v8h-1zm9.305 0v-8h1v8h-1zm9.321 0v-8h1v8h-1z" class="B"/><path d="M372.363 10V0h1v10h-1zm93 0V0h1v10h-1z"/><path d="M372.363 10V0h1v10h-1zm93 0V0h1v10h-1z" class="C"/><path d="M381.663 9.328v-8h1v8h-1zm9.305 0v-8h1v8h-1zm9.321 0v-8h1v8h-1zm9.305 0v-8h1v8h-1z" class="B"/><path d="M418.863 9.328v-8h1v8h-1z" class="D"/><path d="M428.22 9.322v-8h1v8h-1zm9.321.006v-8h1v8h-1zm9.305 0v-8h1v8h-1zm9.321 0v-8h1v8h-1z" class="B"/><path d="M186.182 10.328v-10h1v10h-1z" class="C"/><path d="M195.481 9.656v-8h1v8h-1zm9.305 0v-8h1v8h-1zm9.321 0v-8h1v8h-1zm9.305 0v-8h1v8h-1z" class="B"/><path d="M232.682 9.656v-8h1v8h-1z" class="D"/><path d="M242.038 9.65v-8h1v8h-1zm9.321.006v-8h1v8h-1zm9.305 0v-8h1v8h-1zm9.321 0v-8h1v8h-1z" class="B"/></g></svg>
